X:1
T:James Gibb editions
T:Frohlocket mit Händen, SWV 349 - Schütz
T:#
%%score 1 2 3 4
L:1/8
Q:1/4=100
M:6/4
K:C
V:1 treble nm="Violin I" snm="Vn I"
V:2 treble nm="Violin II" snm="Vn II"
V:3 treble nm="Tenor" snm="T"
V:4 bass nm="Continuo"
V:1
"^Frohlocket mit Händen, SWV 349""^Heinrich Schütz\n(1585-1672)""^Psalm 47:1-6" z12 | z12 | %2
 g4 a2 f2 f2 e2 | d4 g2 e2 e2 d2 | c4 d2 e3 ^f g2 | ^f4 g2 e3 f g2 | g2 ^f4 g6 | %7
 z2 d2 e2 c2 c2 B2 | A4 d2 B2 B2 A2 | G4 c2 A3 B c2 | c2 B4 c6 | z12 | z2 a2 _b2 g2 g2 f2 | %13
 e4 a2 f2 f2 e2 | d2 e4 f2 f2 g2 | a2 B4 c2 c2 d2 | e3 d c2 B2 A4 | G4 z2 z6 | z12 |[M:6/4] z12 | %20
 z12 | z12 |[M:6/4] z12 | z12 | z12 |[M:6/4] z4 g2 e2 e2 g2 | d2 d2 f2 c2 c2 e2 | %27
 B2 B2 d2 A3 B c2 | G2 G2 f2 ed ^c4 | d4 f2 a2 a2 f2 | g2 g2 e2 f2 f2 d2 | e2 e2 c2 d3 c B2 | %32
 c2 c2 g2 fe d4 | c2 e2 g2 g4 ^f2 | !fermata!g12 ||[M:4/4] z8 | z8 | z8 | z8 |[M:4/4] z8 | z8 | %41
 z8 | z8 | z8 | z8 |[M:4/4] z8 ||[M:6/4]"^Symphonie" d4 e2 c2 A2 d2 | B2 G2 c2 A6 | G6 ^F4 G2 | %49
 A4 B2 ^G4 e2 | c4 d2 e4 f2 | g4 f2 e2 d4 | c6 z6 | z12 |[M:6/4] z6 g4 a2 | f2 d2 g2 e2 c2 f2 | %56
 d2 B2 e2 c2 A2 d2 | B2 G2 c2 B2 A4 | G8 ||[M:4/4] z8 | z8 |[M:4/4] z8 | z8 | z8 | z8 | %65
 z2 gg g2 f2 | e2 d2 e4 | e2 e2 ^c2 cc | d4 z2 g2 | e2 ee f2 d2 | ^c2 d2 d3 c | d4 z4 | z4 z de^f | %73
 gdec d4 | c4 z4 | z4 z2 a2 | f2 ff g2 g2 | a2 g2 f2 e2 | d4- ^c4 | z8 | ^f2 ga _babg | a8 | g8 | %83
 z8 | d2 dA B2 ^c2 | dd z2 z4 | z8 | cege- f2 ee | d4 c4 | z4 a2 ae | ^f2 ^g2 aa z2 | d=faf g2 ff | %92
 e4 d2 z g | e^f g4 f2 | g4 z2 g2 | ^f2 g2 z2 g2 | ^ffgg f2 g2 | z2 f2 e2 d2 | z2 f2 eeff | %99
 e2 d2 z4 | z2 ^G2 ABcd | B3 A A2 e2 | d2 ee ddee | d2 e2 z4 | z2 ^F2 GABc | A3 G G2 e2 | %106
 d2 ee ddee | d2 e2 z2 z g | ^fgag g3 f | g8 | z4[Q:1/4=90] g4- | %111
[Q:1/4=90][Q:1/4=90][Q:1/4=90][Q:1/4=90] g2 f2 e2 a2- | a2 ^g2 a4 | z4 f4- | f2 e2 d2 g2- | %115
 g2 ^fe f4 | !fermata!g16 |] %117
V:2
 d4 e2 c2 c2 B2 | A4 d2 B2 B2 A2 | G4 c2 A3 B c2 | c2 B4 c6 | z12 | z2 d2 e2 c2 c2 B2 | %6
 A4 d2 B2 B2 A2 | G3 ABc ABcd e2 | d4 z2 z6 | z2 g2 a2 f2 f2 e2 | d4- g2 e2 e2 d2 | c4 d2 e3 f g2 | %12
 ^c4 d2 B3 =c d2 | d2 ^c4 d6 | B4- c2 A2 A2 G2 | ^F4 G2 E2 E2 D2 | C3 D E2 G2 G3 ^F | G4 z2 z6 | %18
 z12 |[M:6/4] z12 | z12 | z12 |[M:6/4] z12 | z12 | z12 |[M:6/4] z4 e2 g2 g2 e2 | %26
 f2 f2 d2 e2 e2 c2 | d2 d2 B2 c3 B A2 | B2 B2 a2 gf e4 | d4 a2 f2 f2 a2 | e2 e2 g2 d2 d2 f2 | %31
 c2 c2 e2 B3 c d2 | A2 A2 e2 dc B4 | c4 d2 cB A4 | !fermata!B12 ||[M:4/4] z8 | z8 | z8 | z8 | %39
[M:4/4] z8 | z8 | z8 | z8 | z8 | z8 |[M:4/4] z8 ||[M:6/4] z12 | d4 e2 c2 A2 d2 | B2 G2 c2 A4 B2 | %49
 c2 d4 e4 B2 | A4 B2 c2 B2 A2 | G4 A2 c2 c3 B | c6 z6 | z6 g4 a2 |[M:6/4] f2 d2 g2 e2 c2 f2 | %55
 d6- c6 | B6 A6 | G3 F E2 G2 G3 ^F | G8 ||[M:4/4] z8 | z8 |[M:4/4] z8 | z8 | z8 | z8 | %65
"E" z2 ee e2 d2 | ^c2 d2 c4 | ^c4 z4 | z2 d2 B2 BB | ^c2 c2 d4- | e2 f2 g4 | ^f4 z4 | z4 z Bcd | %73
 eB c3 B/A/ B2 | c4 z4 | z8 | z2 A2 e2 ee | c2 e2 a2 g2 | f4- e4 | z8 | d2 e^f gfge | ^f2 g4 f2 | %82
 g8 | z8 | A2 A^F DG/F/ E2 | ^FF z2 z4 | z4 GBdB | c2 BB A2 G2 | z4 cege | a2 gg f2 e2 | z4 A^cec | %91
 d2 cc B>c d2- | d2 ^c2 d2 z d | c2 d2 e2 d2 | d4 z2 d2 | d2 d2 z2 d2 | dddd d2 d2 | z2 d2 ^c2 d2 | %98
 z2 A2 AAAd | ^c2 d2 z4 | E2 EEAA x2 | A2 ^G2 A2 =G2 | G2 GG GGGG | G2 G2 z4 | z2 D2 DDGG | %105
 G2 ^F2 G2 G2 | G2 GG GGGG | G2 G2 z4 | z dee d^c d>d | d8 | z4 B4 | A6 e2 | e4 e4 | z4 A4 | %114
 G6 d2- | d2 e2 d4 | !fermata!d16 |] %117
V:3
 z12 | z12 | z12 | z12 | z12 | z12 | z12 |[M:6/4] z12 | z12 | z12 | z12 | z12 | z12 | z12 | %14
w: ||||||||||||||
[M:6/4][K:treble-8] z12 | z12 | z12 | z2 z2 d2 B2 B2 d2 | A2 A2 c2 G2 G2 B2 | ^F2 F2 A2 E3 F G2 | %20
w: |||Froh- lo- cket mit|Hän- den und jauch- zet dem|Her- ren mit fröh- lich- em|
 D2 D2 G2 =F2 E4 | D4 e2 c2 c2 e2 | B2 B2 d2 A2 A2 c2 | G2 G2 B2 ^F3 G A2 | E2 E2 =F2 E2 D4 | %25
w: Schal- le, al- le Völ-|ker, froh- lo- cket mit|Hän- den und jauch- zet dem|Her- ren mit froh- lich- em|Schal- le, al- le Völ-|
 C4 c2 c2 c2 c2 | _B2 B2 B2 A2 A2 A2 | G2 G2 G2 F3 F F2 | E2 E2 F2 G2 A4 | D4 d2 d2 d2 d2 | %30
w: ker, froh- lo- cket mit|Hän- den und jauch- zet dem|Her- ren mit fröh- lich- em|Schal- le, al- le Völ-|ker, froh- lo- cket mit|
 c2 c2 c2 _B2 B2 B2 | A2 A2 A2 G3 G G2 | F2 F2 E2 F2 G4 | C4 B2 c2 d4 | !fermata!G12 || %35
w: Hän- den und jauch- zet dem|Her- ren mit fröh- lich- em|Schal- le, al- le Völ-|ker, al- le Völ-|ker.|
[M:4/4] z2 d4 d2 | d4 z Bcd | e2 e2 z2 c2- | c2 B2 d4 |[M:4/4][K:treble-8] B4 z Bed | %40
w: Denn der|Herr, der Al- ler-|höch- ste, ist|* er- schreck-|lich, ein gro- sser|
 ^c2 c2 z EAG | ^F2 F2 z Adc | B2 B2 z2 dd | e6 eA | A8 | G8 ||[M:6/4] z12 | z12 | z12 | z12 | %50
w: Kö- nig, ein gro- sser|Ko- nig, ein gro- sser|Kö- nig auf dem|gan- zen Erd-|bo-|den.|||||
 z12 | z12 | z12 | z12 |[M:6/4][K:treble-8] z12 | z12 | z12 | z12 | z8 ||[M:4/4] B2 BB B2 d2 | %60
w: |||||||||Er wird die Völ- ker|
 G2 FE E4 |[M:4/4][K:treble-8] E4 z2 GG | A4 A2 FF | F2 E>D D4 | C8 | z2 cc c2 d2 | A2 _B2 A4 | %67
w: un- ter uns zwin-|gen und die|Leu- te un- ter|un- se- re Fü-|sse.|Er er- wäh- let|uns zum Erb-|
 A4 z2 A2 | ^F2 FF G2 G2 | A4 F4 | E8 | D (ABc dABG | A4) G4 | z8 | z (GAB cGAF | G4) F2 F2 | %76
w: theil die|Herr- lich- keit Ja- cob,|die er|lie-|bet, Se\- * * * * * *|* la,||Se\- * * * * * *|* la, die|
 D2 DD E2 E2 | F2 ^C2 D4- | D4 A4 | (D2 E^F GFGE | D8- | D8 | G8 | d2 dA B2 ^c2 | dd z2 z4 | %85
w: Herr- lich- keit Ja- cob,|die er lie\-|* bet,|Se\- * * * * * *|||la.|Gott fäh- ret auf mit|Jauch- zen|
 ABdB c2 B>A | A4 G4 | z4 c2 cG | A2 B2 cc z2 | Acec d2 cc | B4 A4 | z8 | z4 A-BdB | c2 BB A4 | %94
w: und der Herr mit hel- ler Po-|sau- nen,|Gott fäh- ret|auf mit Jauch- zen|und der Herr mit hel- ler Po-|sau- nen,||und der Herr mit|hel- ler Po- sau-|
 G2 B2 A2 B2 | z2 B2 AABB | A2 B2 z2 d2 | ^c2 d2 z2 d2 | ^ccdd c2 d2 | z2 A2 ABcd | B3 B A2 x2 | %101
w: nen, lob- sin- get,|lob- sin- get Gott, lob-|sin- get, lob-|sin- get, lob-|sin- get Gott, lob- sin- get,|lob- sin- get un- serm|Ko- ni- ge,|
 z4 z2 c2 | B2 cc BBcc | B2 cG GABc | A3 A G4 | z4 z2 c2 | B2 cc BBcc | B2 cc BcdB | A6 A2 | B8 | %110
w: lob-|sin- get, lob- sin- get Gott, lob-|sin- get, lob- sin- get un- serm|Kö- ni- ge,|lob-|sin- get, lob- sin- get Gott, lob-|sin- get, lob- sin- get un- serm|Kö- ni-|ge,|
 z4"^slower" d2 e2 | ^cd/e/ d3 =c cB/A/ | B3) B ^c4 | z4 =c2 d2 | (Bc/d/ c3 B BA/G/ | A6) A2 | %116
w: un- serm|Kö\- * * * * * * *|* ni- ge,|un- serm|Kö\- * * * * * * *|* ni-|
 !fermata!B16 |] %117
w: ge.|
V:4
 x4- x2 A,6- | ^F,6 G,6 | x4- x2 F,6 | x2- x4 C,6 | x4- x2 E,6 | D,4 G,,2 A,,4 B,,2 | %6
w: 5 *||5 *|4 *|5 *|* 6 * 6|
w: ||||||
 C,2 D,4 G,,6 | G,6 A,6- | ^F,6 G,6 | x4- x2 =F,6 | x2- x4 C,6 | F,6 E,6 | A,4 C,2 E,4 F,2 | %13
w: |||5 *|4 *||* 6 * 6|
w: |||||||
 G,2 A,4 D,6 | x2- x2 A,2 F,2 F,2 E,2 | x2- x2 E,2 C,2 C,2 B,,2 | A,,3 B,, C,2 G,,2 x2- x2 | %17
w: |5 * * * *|5 * * * *|* * * * 4|
w: ||||
 G,,6 G,6 | F,6 E,6 | D,6 C,6 | B,,4 G,,4 A,,4 | D,4 A,2 A,6 | G,6 F,6 | E,6 D,6 | C,4 F,,4 G,,4 | %25
w: ||||||||
w: ||||||||
 C,4 C2 C6 | _B,6 A,6 | G,6 F,6 | E,4 F,2 G,2 A,4 | D,4 D2 D6 | C6 _B,6 | A,6 G,6 | %32
w: |||||||
w: |||||||
 F,4 E,2 F,2 G,4 | C,4 B,,2 C,2 x2- x2 | !fermata!G,,12 ||[M:4/4] G,,8 | G,,4 G,,4 | C,4 A,,4 | %38
w: * 6 * *|* 6 * 4|||||
w: ||||||
 x2- x2"^t" F,,4 |[M:4/4] E,,8 | A,,8 | D,8 | G,,4 G,,4 | x4- x4 | x4- x4 | G,,8 || %46
w: 4 6|||||5|4||
w: ||||||||
[M:6/4] x4- x2 A,4 ^F,2 | G,4 E,2 =F,4 D,2 | E,4 C,2 D,2 C,2 B,,2 | A,,2 G,,2 ^F,,2 E,,6 | %50
w: 5 * 6|* 6 * *|* * * 6 6|* * 6 *|
w: ||||
 F,2 E,2 D,2 C,4 D,2 | E,4 F,4 x2- x2 | C,6 G,4 A,2 | F,2 D,2 G,2 E,4 F,2 | %54
w: * 6 6 * *|* * 4|||
w: ||||
[M:6/4] D,2 D2 B,2 C4 A,2 | _B,4 G,2 A,4 F,2 | G,4 E,2 F,4 D,2 | E,4 C,4 x2- x2 | G,,8 || %59
w: * * 6 * 6|||* * 4||
w: |||||
[M:4/4] G,,8 | G,,4 C,4- |[M:4/4] C,4 C,4 | F,,8 | x2- x2 G,,4 | C,8 | C,4 C,2 D,2 | %66
w: ||||7 *|||
w: |||||||
 A,,2 _B,,2 A,,4 | A,,6 A,2 | ^F,4 G,4 | A,4 ^F,4 | x2- x4 x2 |"A" D,4 (x2- x2 | x2) x2 G,,4 | %73
w: ||6 *|* 6|6|||
w: |||||* ~||
 G,,2- G,,4 G,,2 | C,4 (x2- x2 | x2) x2 F,,2 F,2 | D,4 E,4 | F,2 ^C,2 D,4- | D,4 A,,4 | %79
w: * 6 *||||||
w: 3 4 3|* 3|||||
 D,2 E,^F, G,2 E,2 | x4- x4 | x4 x2 x2 | G,,8 | G,2 ^F,2 G,2 A,2 | D,2 ^F,,2 G,,2 A,,2 | %85
w: ||||* 6 * *||
w: ||||||
 D,2 B,,2 A,,2 G,,2 | C,2 D,2 G,,2 B,,G,, | C,2 E, G, F,2 C,2 | F,2 G,2 C,2 E,C, | %89
w: |* * * 6 *|* * 6 * *||
w: ||||
 F,2 E,2 D,2 A,,2 | D,2 E,2 A,,2 A,2 | D,2 F, A, G,2 _B,2 | G,2 A,2 D,2 B,,2 | A,,2 G,,2 C,2 D,2 | %94
w: * 6 * *||* * 6 * *|* * * 6||
w: |||||
 G,,2 G,2 ^F,2 G,2 | D,2 G,2 ^F,F,G,G, | D,2 G,2 D,2 G,,2 | A,,2 D,2 A,2 D,2 | A,,A,,D,D, A,2 D,2 | %99
w: |||||
w: |||||
 A,,2 D,2 A,2 F,2 | D,2 E,2 A,,2 F,,2 | D,,2 E,,2 A,,2 C,2 | G,,2 C,C, G,G,C,C, | %103
w: ||||
w: ||||
 G,,2 C,2 G,2 E,2 | C,2 D,2 G,,2 E,,2 | C,,2 D,,2 G,,2 C,2 | G,2 C,C, G,,G,,C,C, | %107
w: ||||
w: ||||
 G,2 C,2 G,,2 B,,2 | D,2 C,2 x2- x2 | G,,8 | z4 G,2 E,2 | x2- x2 x2 x2 | %112
w: * * * 6|* * 4|||7|
w: |||||
 x2- x2"^M.""^v.""^.vu." A,,4 | z4 F,2 D,2 | x2- x2 x2 x2 | D,2 C,2 D,4 | !fermata!G,,16 |] %117
w: 4 *||7|4 * *||
w: ||3|||

